assets/svg/app/staking-logo-mobile.svg

<svg width="22" height="16" viewBox="0 0 22 16" fill="none" xmlns="http://www.w3.org/2000/svg">
<path d="M5.31548 3.72805C5.16166 3.54675 4.97228 3.45589 4.74692 3.45589H0.138107C0.0971713 3.45589 0.0636782 3.44254 0.038455 3.41584C0.0128183 3.38957 0 3.35985 0 3.32799V0.1279C0 0.0960327 0.0128183 0.0667492 0.038455 0.0400495C0.0636782 0.0133498 0.0971713 0 0.138107 0H5.00825C6.23716 0 7.29736 0.517629 8.18844 1.55203L9.37145 3.03989L7.06704 5.93594L5.31548 3.72805ZM13.8269 1.53609C14.7179 0.512031 15.7831 0 17.0223 0H21.8772C21.9181 0 21.9487 0.010766 21.9694 0.0318674C21.9897 0.0533994 22 0.0852667 22 0.1279V3.32799C22 3.35985 21.9897 3.38957 21.9694 3.41584C21.9487 3.44254 21.9181 3.45589 21.8772 3.45589H17.2684C17.043 3.45589 16.8536 3.54675 16.6998 3.72805L13.3046 7.98407L16.7151 12.2719C16.8689 12.4429 17.0529 12.5282 17.2684 12.5282H21.8772C21.9181 12.5282 21.9487 12.5415 21.9694 12.5682C21.9897 12.5949 22 12.6298 22 12.672V15.8721C22 15.904 21.9897 15.9337 21.9694 15.9599C21.9487 15.9866 21.9181 16 21.8772 16H17.0223C15.7831 16 14.7229 15.4828 13.8422 14.448L11.0155 10.8961L8.18844 14.448C7.29736 15.4828 6.2322 16 4.99295 16H0.138107C0.0971713 16 0.0661592 15.9866 0.0458979 15.9599C0.0252232 15.9332 0.0152993 15.8988 0.0152993 15.8557V12.6557C0.0152993 12.6238 0.0252232 12.5945 0.0458979 12.5678C0.0661592 12.5411 0.0971713 12.5278 0.138107 12.5278H4.74692C4.96194 12.5278 5.15132 12.4373 5.31548 12.2556L8.64908 8.06373L13.8269 1.53609Z" fill="#00D1FF"/>
</svg>

<svg viewBox="0 0 22 16" fill="none" xmlns="http://www.w3.org/2000/svg">
    <path d="M5.315 3.728a.718.718 0 00-.568-.272H.138a.131.131 0 01-.1-.04A.124.124 0 010 3.328v-3.2C0 .096.013.067.038.04a.131.131 0 01.1-.04h4.87c1.23 0 2.29.518 3.18 1.552L9.371 3.04 7.067 5.936 5.315 3.728zm8.512-2.192C14.717.512 15.783 0 17.022 0h4.855c.041 0 .072.01.092.032.02.021.031.053.031.096v3.2c0 .032-.01.062-.03.088-.021.027-.052.04-.093.04h-4.609a.718.718 0 00-.568.272l-3.395 4.256 3.41 4.288a.718.718 0 00.553.256h4.61c.04 0 .07.013.091.04.02.027.031.062.031.104v3.2a.14.14 0 01-.03.088c-.021.027-.052.04-.093.04h-4.855c-1.239 0-2.3-.517-3.18-1.552l-2.827-3.552-2.827 3.552C7.298 15.483 6.232 16 4.993 16H.138c-.04 0-.072-.013-.092-.04a.165.165 0 01-.03-.104v-3.2a.14.14 0 01.03-.088c.02-.027.051-.04.092-.04h4.609c.215 0 .404-.09.568-.272L8.65 8.064l5.178-6.528z" fill="#00D1FF"/>
</svg>
